X:1
T:In the Bleak Mid-Winter
T:In the Bleak Mid-Winter
T:Arr. Jim Swearingen
C:Arr. Jim Swearingen
L:1/8
M:4/4
K:Bb
V:1 treble transpose=24 nm="Glockenspiel" snm="Glock."
V:1
 z4 z2 f2- | f6 f2- | f6 f2- | f6 f2- | f6 f2- | f6 f2- | f6 f2- | f6 f2- | f6 f2- | f6 f2 | %10
 z2 f2 z2 e2 | d2 Bc d2 z2 | z8 | z8 | z8 | z8 | z4 z2 f2- | f6 f2 | z2 f2 z2 e2 | d2 Bc d2 z2 | %20
 z8 | z8 | z8 | z8 | z2 E2 G2 B2 | B4 A4 | G8 | c4 B4 | z2 c2 B2 G2 | F2 B2 A4 | G8 | c2 GA c2 EF | %32
 B8 | E3 D E2 F2 | G2 G2 D4 | F2 D2 C2 B,2 | A,8 | d3 e f2 d2 | c4 B4 | c2 d2 c3 d | e2 d2 c4 | %41
 c2 d2 c3 d | efed c2 B2 | B6 z2 | e2 d2 c3 d | e2 d2 c4 | z8 | z4 z2 B2 | B3 c d2 B2 | A4 G4 | %50
 B8 | z8 |] %52

